icons/skull_fill.svg

<svg width="48" height="48" viewBox="0 0 48 48" fill="none" xmlns="http://www.w3.org/2000/svg">
<path fill-rule="evenodd" clip-rule="evenodd" d="M12.9693 7.55747C10.3617 9.822 9 12.9793 9 16.5C9 19.9313 9.79883 22.0837 10.6056 23.6972C10.7892 24.0644 10.9724 24.4022 11.1375 24.7065L11.1717 24.7696C11.349 25.0966 11.5003 25.3782 11.6275 25.6468C11.8792 26.1781 12 26.5857 12 27V30.9992C12 31.5515 12.4477 32 13 32L13.0157 32C13.0295 32.5428 13.0556 33.2704 13.1047 34.0863C13.2082 35.8049 13.4178 37.9883 13.8559 39.6552C14.0237 40.2938 14.4243 40.8384 14.9753 41.1919C16.2644 42.0189 19.7777 44 24 44C28.2223 44 31.7356 42.0189 33.0247 41.1919C33.5757 40.8384 33.9763 40.2938 34.1441 39.6552C34.5822 37.9883 34.7918 35.8049 34.8953 34.0863C34.9444 33.2704 34.9705 32.5428 34.9843 32C34.9895 32 34.9948 32 35 32C35.5523 32 36 31.5523 36 31V27C36 26.5857 36.1208 26.1781 36.3725 25.6468C36.4997 25.3782 36.651 25.0966 36.8283 24.7696L36.8625 24.7065C37.0276 24.4022 37.2109 24.0643 37.3944 23.6972C38.2012 22.0837 39 19.9313 39 16.5C39 12.9793 37.6383 9.822 35.0307 7.55747C32.4332 5.30179 28.6812 4 24 4C19.3188 4 15.5668 5.30179 12.9693 7.55747ZM32.9736 32.3418C32.8348 32.4036 32.7167 32.4701 32.6164 32.5382C32.2177 32.809 32.0108 33.1635 31.9046 33.567C31.7927 33.9921 31.7972 34.4631 31.8454 34.8974C31.8691 35.1101 31.9015 35.301 31.931 35.4672L31.9387 35.5108C31.9504 35.5764 31.9627 35.6455 31.972 35.7038C31.9808 35.759 32 35.8793 32 36C32 36.8549 31.2762 37.6113 30.1508 38.1037C28.9703 38.6201 27.0631 39 24 39C20.9369 39 19.0297 38.6201 17.8492 38.1037C16.7238 37.6113 16 36.8549 16 36C16 35.8793 16.0191 35.7593 16.028 35.7042C16.0373 35.6458 16.0496 35.5764 16.0613 35.5108L16.069 35.4672C16.0985 35.301 16.1309 35.1101 16.1546 34.8974C16.2028 34.4631 16.2073 33.9921 16.0954 33.567C15.9892 33.1635 15.7823 32.809 15.3836 32.5382C15.2833 32.4701 15.1652 32.4036 15.0264 32.3418C15.0413 32.8049 15.0646 33.3606 15.1011 33.9661C15.2034 35.665 15.4052 37.6821 15.7902 39.1468C15.8292 39.295 15.9214 39.4227 16.0552 39.5085C17.2336 40.2645 20.3518 42 24 42C27.6482 42 30.7664 40.2645 31.9448 39.5085C32.0786 39.4227 32.1708 39.295 32.2098 39.1468C32.5948 37.6821 32.7966 35.665 32.8989 33.9661C32.9354 33.3606 32.9587 32.8049 32.9736 32.3418ZM29.3492 36.2713C28.5297 36.6299 26.9369 37 24 37C21.0631 37 19.4703 36.6299 18.6508 36.2713C18.2723 36.1057 18.0995 35.9662 18.0253 35.8899L18.0384 35.816C18.0695 35.6404 18.1113 35.3977 18.1423 35.1182C18.2034 34.5682 18.2302 33.8204 18.0296 33.058C17.8233 32.274 17.374 31.4723 16.5071 30.8836C15.8566 30.4419 15.0275 30.1586 14 30.0501V27C14 26.1643 13.7458 25.4469 13.435 24.7907C13.281 24.4655 13.1042 24.1378 12.9299 23.8163L12.8984 23.7582C12.731 23.4496 12.5625 23.139 12.3944 22.8028C11.7012 21.4163 11 19.5687 11 16.5C11 13.5207 12.1383 10.928 14.2807 9.06753C16.4332 7.19821 19.6812 6 24 6C28.3188 6 31.5668 7.19821 33.7193 9.06753C35.8617 10.928 37 13.5207 37 16.5C37 19.5687 36.2988 21.4163 35.6056 22.8028C35.4375 23.139 35.269 23.4496 35.1016 23.7582L35.0701 23.8163C34.8958 24.1378 34.719 24.4655 34.565 24.7907C34.2542 25.4469 34 26.1643 34 27V30.0501C32.9725 30.1586 32.1434 30.4419 31.4929 30.8836C30.626 31.4723 30.1767 32.274 29.9704 33.058C29.7698 33.8204 29.7966 34.5682 29.8577 35.1182C29.8887 35.3977 29.9305 35.6404 29.9616 35.816L29.9747 35.8899C29.9005 35.9662 29.7277 36.1057 29.3492 36.2713ZM19 29C16.7909 29 15 26.7614 15 24C15 21.2386 16.7909 19 19 19C21.2091 19 23 21.2386 23 24C23 26.7614 21.2091 29 19 29ZM33 24C33 26.7614 31.2091 29 29 29C26.7909 29 25 26.7614 25 24C25 21.2386 26.7909 19 29 19C31.2091 19 33 21.2386 33 24ZM24 29L23.9818 29.0084C23.7321 29.1255 21 30.4486 21 32.2759C21 33.1061 21.5794 33.8805 22.3993 33.9874C22.4627 33.9957 22.5276 34 22.5937 34C23.233 34 23.7073 33.6278 24 33.0998C24.2928 33.6278 24.7671 34 25.4062 34C25.4724 34 25.5373 33.9957 25.6007 33.9874C26.4205 33.8805 27 33.1062 27 32.2759C27 30.369 24.0178 29.0078 24.0178 29.0078L24 29Z" fill="black"/>
</svg>

<svg
  xmlns="http://www.w3.org/2000/svg"
  width="24"
  height="24"
  viewBox="0 0 24 24"
  fill="none"
  stroke="currentColor"
  stroke-width="2"
  stroke-linecap="round"
  stroke-linejoin="round"
>
  <path
    fill-rule="evenodd"
    d="M12.97 7.557C10.361 9.822 9 12.98 9 16.5c0 3.431.799 5.584 1.606 7.197.183.367.366.705.531 1.01l.035.063c.177.327.328.608.455.877.252.531.373.939.373 1.353v4a1 1 0 0 0 1 1h.016c.014.543.04 1.27.089 2.086.103 1.719.313 3.902.75 5.57a2.6 2.6 0 0 0 1.12 1.536C16.265 42.019 19.778 44 24 44s7.736-1.981 9.025-2.808a2.6 2.6 0 0 0 1.12-1.537c.437-1.667.647-3.85.75-5.569.05-.816.075-1.543.09-2.086H35a1 1 0 0 0 1-1v-4c0-.414.12-.822.373-1.353.127-.269.278-.55.455-.877l.034-.064c.166-.304.349-.642.532-1.009C38.201 22.084 39 19.931 39 16.5c0-3.52-1.362-6.678-3.97-8.943C32.434 5.302 28.682 4 24 4s-8.433 1.302-11.03 3.557m20.004 24.785a2.3 2.3 0 0 0-.358.196c-.398.271-.605.626-.711 1.029-.112.425-.108.896-.06 1.33.024.213.056.404.086.57l.008.044c.011.065.024.134.033.193.009.055.028.175.028.296 0 .855-.724 1.611-1.85 2.104-1.18.516-3.087.896-6.15.896s-4.97-.38-6.15-.896C16.723 37.61 16 36.854 16 36c0-.12.02-.24.028-.296l.033-.193.008-.044c.03-.166.062-.357.086-.57.048-.434.052-.905-.06-1.33a1.7 1.7 0 0 0-.711-1.029 2.3 2.3 0 0 0-.358-.196c.015.463.039 1.019.075 1.624.102 1.699.304 3.716.69 5.18a.6.6 0 0 0 .264.362C17.234 40.265 20.352 42 24 42s6.766-1.736 7.945-2.492a.6.6 0 0 0 .265-.361c.385-1.465.587-3.482.689-5.18.036-.606.06-1.162.075-1.625m-3.625 3.93C28.53 36.63 26.937 37 24 37s-4.53-.37-5.35-.729c-.378-.165-.55-.305-.625-.381l.013-.074c.032-.176.073-.418.104-.698.061-.55.088-1.298-.112-2.06-.207-.784-.656-1.586-1.523-2.174-.65-.442-1.48-.725-2.507-.834V27c0-.836-.254-1.553-.565-2.21a20 20 0 0 0-.505-.974l-.032-.058c-.167-.308-.335-.619-.504-.955C11.701 21.416 11 19.569 11 16.5c0-2.98 1.138-5.572 3.28-7.432C16.434 7.198 19.682 6 24 6s7.567 1.198 9.72 3.068C35.861 10.928 37 13.52 37 16.5c0 3.069-.701 4.916-1.394 6.303-.169.336-.337.647-.504.955l-.032.058c-.174.322-.351.65-.505.975-.31.656-.565 1.373-.565 2.209v3.05c-1.028.109-1.857.392-2.507.834-.867.588-1.316 1.39-1.523 2.174-.2.762-.173 1.51-.112 2.06.03.28.072.522.104.698l.013.074c-.075.076-.247.216-.626.381M19 29c-2.21 0-4-2.239-4-5s1.79-5 4-5 4 2.239 4 5-1.79 5-4 5m14-5c0 2.761-1.79 5-4 5s-4-2.239-4-5 1.79-5 4-5 4 2.239 4 5m-9 5-.018.008c-.25.117-2.982 1.44-2.982 3.268 0 .83.58 1.604 1.4 1.711q.095.013.194.013c.639 0 1.113-.372 1.406-.9.293.528.767.9 1.406.9q.099 0 .195-.013c.82-.107 1.399-.88 1.399-1.711 0-1.907-2.982-3.268-2.982-3.268z"
    clip-rule="evenodd"
  />
</svg>
